dist/assets/img/svg/logo5-mobile.svg

<svg width="157" height="130" viewBox="0 0 157 130" fill="none" xmlns="http://www.w3.org/2000/svg">
<path d="M113.11 36.0908C113.11 16.1552 97.0261 0 77.1781 0C57.3301 0 41.2459 16.1552 41.2459 36.0908C41.2459 56.0264 57.3301 72.1815 77.1781 72.1815C97.0261 72.1815 113.11 56.0264 113.11 36.0908ZM49.0601 36.0908C49.0601 20.485 61.6539 7.84866 77.1781 7.84866C92.7023 7.84866 105.296 20.485 105.296 36.0908C105.296 51.6834 92.7023 64.3329 77.1781 64.3329C61.6539 64.3329 49.0601 51.6834 49.0601 36.0908ZM92.6111 36.0908C92.6111 27.5357 85.7086 20.5897 77.1781 20.5897C68.6606 20.5897 61.7451 27.5357 61.7451 36.0908C61.7451 44.6458 68.6606 51.5919 77.1781 51.5919C85.6956 51.5919 92.6111 44.6458 92.6111 36.0908ZM65.6261 36.0908C65.6261 29.681 70.7965 24.4878 77.1781 24.4878C83.5597 24.4878 88.7301 29.681 88.7301 36.0908C88.7301 42.5005 83.5597 47.6937 77.1781 47.6937C70.7965 47.6937 65.6261 42.5005 65.6261 36.0908ZM103.317 36.0908C103.317 21.5838 91.6213 9.83699 77.1781 9.83699C62.7479 9.83699 51.0396 21.5838 51.0396 36.0908C51.0396 50.5846 62.7479 62.3445 77.1781 62.3445C91.6083 62.3445 103.317 50.5977 103.317 36.0908ZM97.7034 44.6458C99.0839 45.4438 99.5527 47.2228 98.7583 48.5963C97.9638 49.9829 96.1926 50.4538 94.8251 49.6559C93.4446 48.8579 92.9758 47.092 93.7702 45.7054C94.5647 44.3188 96.3359 43.8479 97.7034 44.6458ZM77.1781 54.0904C67.2801 54.0904 59.2576 46.0324 59.2576 36.0908C59.2576 26.1491 67.2801 18.0781 77.1781 18.0781C87.0761 18.0781 95.1116 26.136 95.1116 36.0908C95.1116 46.0455 87.0891 54.0904 77.1781 54.0904ZM102.092 36.0908C102.092 37.6867 100.803 38.9817 99.2141 38.9817C97.6252 38.9817 96.3359 37.6867 96.3359 36.0908C96.3359 34.4949 97.6252 33.1998 99.2141 33.1998C100.803 33.1998 102.092 34.4949 102.092 36.0908ZM98.7583 23.5721C99.5527 24.9587 99.0839 26.7247 97.7034 27.5226C96.3228 28.3206 94.5647 27.8497 93.7702 26.4631C92.9758 25.0765 93.4446 23.3105 94.8251 22.5126C96.2056 21.7146 97.9638 22.1856 98.7583 23.5721ZM89.6417 14.4154C91.0222 15.2133 91.4911 16.9793 90.6966 18.3659C89.9022 19.7525 88.144 20.2234 86.7635 19.4254C85.383 18.6275 84.9141 16.8485 85.7086 15.4749C86.503 14.0883 88.2612 13.6174 89.6417 14.4154ZM77.1781 11.0666C78.767 11.0666 80.0563 12.3616 80.0563 13.9575C80.0563 15.5534 78.767 16.8485 77.1781 16.8485C75.5892 16.8485 74.2999 15.5534 74.2999 13.9575C74.2999 12.3616 75.5892 11.0666 77.1781 11.0666ZM63.6596 18.3659C62.8651 16.9793 63.334 15.2133 64.7145 14.4154C66.095 13.6174 67.8532 14.0883 68.6476 15.4749C69.4421 16.8615 68.9732 18.6275 67.5927 19.4254C66.2122 20.2234 64.454 19.7525 63.6596 18.3659ZM56.6528 27.5226C55.2723 26.7247 54.8035 24.9587 55.5979 23.5721C56.3924 22.1856 58.1506 21.7146 59.5311 22.5126C60.9116 23.3105 61.3804 25.0896 60.586 26.4631C59.7915 27.8497 58.0333 28.3206 56.6528 27.5226ZM52.2639 36.0777C52.2639 34.4818 53.5532 33.1868 55.1421 33.1868C56.731 33.1868 58.0203 34.4818 58.0203 36.0777C58.0203 37.6736 56.731 38.9686 55.1421 38.9686C53.5532 38.9686 52.2639 37.6736 52.2639 36.0777ZM55.5979 48.5963C54.8035 47.2097 55.2723 45.4438 56.6528 44.6458C58.0333 43.8479 59.7915 44.3188 60.586 45.7054C61.3804 47.092 60.9116 48.8579 59.5311 49.6559C58.1506 50.4538 56.3924 49.9829 55.5979 48.5963ZM64.7145 57.7531C63.334 56.9551 62.8651 55.1892 63.6596 53.8026C64.454 52.416 66.2252 51.9451 67.5927 52.743C68.9732 53.541 69.4421 55.3069 68.6476 56.6935C67.8532 58.0801 66.095 58.551 64.7145 57.7531ZM77.1781 61.1018C75.5892 61.1018 74.2999 59.8068 74.2999 58.2109C74.2999 56.615 75.5892 55.32 77.1781 55.32C78.767 55.32 80.0563 56.615 80.0563 58.2109C80.0563 59.8068 78.767 61.1018 77.1781 61.1018ZM89.6287 57.7531C88.2482 58.551 86.49 58.0801 85.6956 56.6935C84.9011 55.3069 85.37 53.541 86.7505 52.743C88.131 51.9451 89.8892 52.416 90.6836 53.8026C91.4781 55.1892 91.0092 56.9551 89.6287 57.7531ZM77.1521 88.8469H68.309V80.2395H62.4223V112.524H68.309V94.7726H77.1521C79.1186 94.7726 80.0954 95.7537 80.0954 97.7289V112.524H85.9821V97.7289C85.9821 91.8163 83.0387 88.8469 77.139 88.8469H77.1521ZM130.705 94.7595L133.323 88.8469H126.994V80.2395H121.107V88.8469H115.442V94.7595H121.107V112.511H126.994V94.7595H130.705ZM142.687 106.598L156.987 94.7595V88.8469H138.038L135.42 94.7595H147.727L133.427 106.598V112.511H157V106.598H142.7H142.687ZM32.4158 102.831C32.4158 96.3685 29.199 93.1505 22.7783 93.1505H9.92401C7.77511 93.1505 6.70718 92.0779 6.70718 89.9195C6.70718 87.7611 7.77511 86.6885 9.92401 86.6885H26.8547L29.7199 80.2264H9.92401C3.49034 80.2264 0.28652 83.4574 0.28652 89.9064C0.28652 96.3554 3.50336 99.5864 9.92401 99.5864H22.7783C24.9272 99.5864 25.9952 100.659 25.9952 102.817C25.9952 104.976 24.9272 106.049 22.7783 106.049H0V112.511H22.7783C29.212 112.511 32.4158 109.28 32.4158 102.831ZM44.4757 106.598C42.5092 106.598 41.5324 105.617 41.5324 103.642V97.7289C41.5324 95.7537 42.5092 94.7726 44.4757 94.7726H56.7049L59.2055 89.1216V88.8599H44.4757C38.5891 88.8599 35.6327 91.8163 35.6327 97.742V103.655C35.6327 109.567 38.576 112.537 44.4757 112.537H59.2055V106.624H44.4757V106.598ZM103.942 88.8469H93.119L90.5013 94.7595H103.942C105.908 94.7595 106.885 95.7275 106.885 97.6635V97.7158H96.5963C91.6734 97.7158 89.1989 100.136 89.1989 104.976C89.1989 109.999 91.6604 112.511 96.5963 112.511H112.772V97.7158C112.772 91.8032 109.828 88.8338 103.929 88.8338L103.942 88.8469ZM106.885 103.642V106.598H96.5963C95.5935 106.598 95.0986 106.101 95.0986 105.094C95.0986 104.086 95.5935 103.642 96.5963 103.642H106.885ZM92.9367 128.797C93.093 129.163 93.3014 129.438 93.5879 129.608C93.8744 129.778 94.213 129.895 94.6037 129.935C94.9944 129.974 95.5024 130 96.1405 130C97.0261 130 97.6903 129.948 98.1592 129.843C98.628 129.738 98.9797 129.49 99.2271 129.11C99.4746 128.731 99.6048 128.116 99.6048 127.292V121.105H98.6411V127.266C98.6411 127.815 98.5759 128.221 98.4587 128.483C98.3415 128.731 98.1071 128.901 97.7815 128.993C97.4429 129.071 96.9089 129.124 96.1666 129.124C95.4242 129.124 94.8903 129.084 94.5647 128.993C94.226 128.901 94.0046 128.744 93.8874 128.483C93.7702 128.234 93.7051 127.829 93.7051 127.266V121.105H92.7413V127.292C92.7413 127.92 92.8195 128.417 92.9627 128.783L92.9367 128.797ZM118.645 129.908V129.019H114.23V121.118H113.254V129.908H118.658H118.645ZM103.538 129.908L104.241 128.103H108.656L109.307 129.908H110.349L107.093 121.118H105.687L102.496 129.908H103.551H103.538ZM104.476 127.24L106.403 121.837L108.344 127.24H104.476ZM137.23 129.908H138.207V126.233L141.515 121.118H140.408L137.764 125.317L135.107 121.118H134.026L137.243 126.233V129.908H137.23ZM121.471 121.131V129.895H122.461V121.131H121.471ZM128.009 122.007V129.908H128.986V122.007H131.825V121.118H125.144V122.007H128.009ZM87.5449 129.843C87.8054 129.778 88.0398 129.686 88.2482 129.568C88.4566 129.451 88.6519 129.281 88.8343 129.058L89.4854 129.503L89.8892 128.836L89.1468 128.326C89.251 127.986 89.3161 127.044 89.3161 125.513C89.3161 124.545 89.264 123.76 89.1468 123.185C89.0296 122.609 88.8473 122.164 88.5738 121.85C88.3003 121.537 87.9356 121.327 87.4668 121.196C86.9979 121.079 86.3728 121.013 85.5783 121.013C84.7839 121.013 84.1978 121.079 83.742 121.196C83.2862 121.314 82.9215 121.537 82.648 121.85C82.3876 122.164 82.1922 122.609 82.075 123.198C81.9578 123.773 81.9057 124.545 81.9057 125.5C81.9057 126.455 81.9578 127.227 82.075 127.802C82.1792 128.378 82.3745 128.823 82.648 129.137C82.9215 129.451 83.2862 129.673 83.742 129.804C84.1978 129.935 84.823 129.987 85.5914 129.987C86.0211 129.987 86.3858 129.987 86.6984 129.961C87.0109 129.948 87.2844 129.895 87.5449 129.843ZM84.1327 128.993C83.7941 128.901 83.5336 128.731 83.3513 128.483C83.169 128.234 83.0518 127.881 82.9866 127.436C82.9215 126.978 82.8955 126.337 82.8955 125.513C82.8955 124.689 82.9215 124.035 82.9866 123.577C83.0518 123.119 83.169 122.766 83.3383 122.518C83.5206 122.269 83.7681 122.099 84.1197 122.007C84.4713 121.916 84.9402 121.877 85.5783 121.877C86.2165 121.877 86.6984 121.916 87.05 122.007C87.4016 122.099 87.6621 122.269 87.8575 122.505C88.0398 122.753 88.1701 123.093 88.2352 123.551C88.3003 124.009 88.3394 124.65 88.3394 125.487C88.3394 126.821 88.3263 127.567 88.2873 127.724L85.7477 126.05L85.3048 126.743L88.0268 128.522C87.8965 128.692 87.7272 128.823 87.5319 128.901C87.3365 128.98 87.0891 129.045 86.7895 129.071C86.49 129.097 86.0993 129.11 85.5783 129.11C84.9532 129.11 84.4713 129.071 84.1327 128.967V128.993ZM43.7073 121.105V129.908H44.6711V121.903L48.0051 129.908H48.8517L52.1597 121.824V129.908H53.1234V121.105H51.5215L48.4089 128.653L45.3223 121.105H43.6943H43.7073ZM66.8634 121.105V129.895H67.8271V121.955L72.7631 129.895H74.2999V121.105H73.3361V129.137L68.4132 121.105H66.8764H66.8634ZM30.6056 121.105H24.9793V129.895H30.5925V129.019H25.9561V125.827H30.4102V124.977H25.9561V121.981H30.6186V121.118L30.6056 121.105ZM21.3197 129.254C21.5802 128.993 21.7755 128.613 21.8927 128.142C22.01 127.672 22.062 127.057 22.062 126.285V125.265H18.2722V126.115H21.0723V126.429C21.0723 127.148 21.0071 127.685 20.8639 128.077C20.7206 128.456 20.4601 128.731 20.0955 128.888C19.7178 129.045 19.1838 129.137 18.4675 129.137C17.9336 129.137 17.4908 129.084 17.1652 128.993C16.8396 128.901 16.5791 128.718 16.3837 128.47C16.1884 128.221 16.0581 127.855 15.98 127.397C15.9019 126.939 15.8628 126.311 15.8628 125.539C15.8628 124.768 15.9019 124.14 15.98 123.669C16.0581 123.198 16.2014 122.832 16.3837 122.583C16.5791 122.321 16.8265 122.138 17.1652 122.047C17.4908 121.942 17.9336 121.89 18.4805 121.89C19.2229 121.89 19.7699 121.942 20.1215 122.034C20.4732 122.138 20.7206 122.308 20.8508 122.557C20.9811 122.805 21.0723 123.185 21.0983 123.695H22.049C21.9969 123.002 21.8797 122.478 21.7104 122.112C21.5411 121.746 21.2025 121.484 20.7206 121.301C20.2257 121.118 19.4834 121.026 18.4936 121.026C17.7642 121.026 17.1652 121.105 16.7093 121.249C16.2535 121.406 15.8888 121.641 15.6284 121.981C15.3679 122.321 15.1725 122.779 15.0684 123.355C14.9511 123.93 14.899 124.65 14.899 125.526C14.899 126.403 14.9511 127.135 15.0553 127.698C15.1595 128.26 15.3549 128.705 15.6153 129.045C15.8758 129.385 16.2405 129.621 16.7093 129.765C17.1782 129.908 17.7773 129.987 18.5066 129.987C19.2359 129.987 19.809 129.935 20.2648 129.817C20.7206 129.699 21.0853 129.516 21.3457 129.254H21.3197ZM38.563 126.507C38.8105 126.599 38.9928 126.756 39.11 126.991C39.2272 127.214 39.2923 127.515 39.2923 127.894V129.882H40.2691V127.658C40.2691 126.599 39.8133 126.05 38.8886 125.984C39.3444 125.906 39.67 125.749 39.8914 125.539C40.1128 125.33 40.2431 125.082 40.3082 124.794C40.3603 124.506 40.3993 124.127 40.3993 123.669C40.3993 122.753 40.1779 122.099 39.7742 121.707C39.3705 121.314 38.7193 121.105 37.8467 121.105H33.6922V129.895H34.6559V126.377H37.6253C38.003 126.377 38.3156 126.429 38.563 126.52V126.507ZM34.6559 125.526V121.968H37.8467C38.2114 121.968 38.5109 122.034 38.7453 122.164C38.9798 122.295 39.1491 122.505 39.2533 122.779C39.3574 123.054 39.4095 123.42 39.4095 123.865C39.4095 124.31 39.3444 124.65 39.2142 124.898C39.0839 125.134 38.8886 125.304 38.6151 125.395C38.3416 125.487 37.9769 125.526 37.5081 125.526H34.6429H34.6559ZM59.2966 121.092L56.1058 129.882H57.1608L57.864 128.077H62.2791L62.9302 129.882H63.9721L60.7162 121.092H59.3097H59.2966ZM61.9665 127.214H58.0985L60.026 121.811L61.9665 127.214Z" fill="url(#paint0_linear_1110_2535)"/>
<defs>
<linearGradient id="paint0_linear_1110_2535" x1="78.4935" y1="0" x2="78.4935" y2="130.039" gradientUnits="userSpaceOnUse">
<stop stop-color="#888A8D"/>
<stop offset="0.14" stop-color="#ACADAF"/>
<stop offset="0.46" stop-color="white"/>
<stop offset="0.57" stop-color="#BCBCBC"/>
<stop offset="0.65" stop-color="#929292"/>
<stop offset="0.69" stop-color="#828282"/>
<stop offset="0.72" stop-color="#7E7E7E"/>
<stop offset="0.75" stop-color="#737373"/>
<stop offset="0.78" stop-color="#606060"/>
<stop offset="0.8" stop-color="#464646"/>
<stop offset="0.82" stop-color="#363636"/>
<stop offset="0.83" stop-color="#393939"/>
<stop offset="0.85" stop-color="#444444"/>
<stop offset="0.87" stop-color="#575757"/>
<stop offset="0.88" stop-color="#717171"/>
<stop offset="0.89" stop-color="#828282"/>
</linearGradient>
</defs>
</svg>

<svg width="157" height="130" fill="none" xmlns="http://www.w3.org/2000/svg"><path d="M113.11 36.09C113.11 16.156 97.026 0 77.178 0 57.33 0 41.246 16.155 41.246 36.09c0 19.936 16.084 36.091 35.932 36.091 19.848 0 35.932-16.155 35.932-36.09zm-64.05 0c0-15.605 12.594-28.241 28.118-28.241s28.118 12.636 28.118 28.242c0 15.592-12.594 28.242-28.118 28.242S49.06 51.683 49.06 36.09zm43.551 0c0-8.554-6.902-15.5-15.433-15.5-8.517 0-15.433 6.946-15.433 15.5 0 8.556 6.916 15.502 15.433 15.502 8.518 0 15.433-6.946 15.433-15.501zm-26.985 0c0-6.409 5.17-11.602 11.552-11.602S88.73 29.68 88.73 36.09s-5.17 11.603-11.552 11.603S65.626 42.5 65.626 36.09zm37.691 0c0-14.506-11.696-26.253-26.139-26.253-14.43 0-26.138 11.747-26.138 26.254 0 14.494 11.708 26.253 26.138 26.253 14.43 0 26.139-11.746 26.139-26.253zm-5.614 8.556a2.899 2.899 0 011.055 3.95 2.873 2.873 0 01-3.933 1.06 2.896 2.896 0 01-1.055-3.95 2.873 2.873 0 013.933-1.06zM77.178 54.09c-9.898 0-17.92-8.058-17.92-18 0-9.94 8.022-18.012 17.92-18.012 9.898 0 17.934 8.058 17.934 18.013 0 9.954-8.023 18-17.934 18zm24.914-18a2.885 2.885 0 01-2.878 2.892 2.885 2.885 0 01-2.878-2.891 2.886 2.886 0 012.878-2.891 2.885 2.885 0 012.878 2.89zm-3.334-12.518a2.896 2.896 0 01-1.055 3.95 2.87 2.87 0 01-3.933-1.059 2.896 2.896 0 011.055-3.95 2.87 2.87 0 013.933 1.06zm-9.116-9.157a2.896 2.896 0 011.055 3.95 2.87 2.87 0 01-3.934 1.06 2.899 2.899 0 01-1.054-3.95 2.87 2.87 0 013.933-1.06zm-12.464-3.348a2.885 2.885 0 012.878 2.89 2.886 2.886 0 01-2.878 2.892 2.886 2.886 0 01-2.878-2.892c0-1.595 1.29-2.89 2.878-2.89zM63.66 18.366a2.896 2.896 0 011.055-3.95 2.87 2.87 0 013.933 1.059 2.896 2.896 0 01-1.055 3.95 2.87 2.87 0 01-3.933-1.06zm-7.007 9.157a2.896 2.896 0 01-1.055-3.95 2.87 2.87 0 013.933-1.06 2.899 2.899 0 011.055 3.95 2.87 2.87 0 01-3.933 1.06zm-4.39 8.555a2.886 2.886 0 012.88-2.891 2.885 2.885 0 012.877 2.89 2.885 2.885 0 01-2.878 2.892 2.885 2.885 0 01-2.878-2.891zm3.335 12.518a2.896 2.896 0 011.055-3.95 2.87 2.87 0 013.933 1.06 2.896 2.896 0 01-1.055 3.95 2.87 2.87 0 01-3.933-1.06zm9.117 9.157a2.896 2.896 0 01-1.055-3.95 2.872 2.872 0 013.933-1.06 2.896 2.896 0 011.055 3.95 2.87 2.87 0 01-3.933 1.06zm12.463 3.349A2.885 2.885 0 0174.3 58.21a2.886 2.886 0 012.878-2.891 2.885 2.885 0 012.878 2.89 2.885 2.885 0 01-2.878 2.892zm12.45-3.349a2.87 2.87 0 01-3.932-1.06 2.896 2.896 0 011.055-3.95 2.87 2.87 0 013.933 1.06 2.896 2.896 0 01-1.055 3.95zM77.153 88.847H68.31V80.24h-5.887v32.284h5.887V94.773h8.843c1.967 0 2.943.98 2.943 2.956v14.795h5.887V97.729c0-5.913-2.943-8.882-8.843-8.882h.013zm53.553 5.913l2.618-5.913h-6.329V80.24h-5.887v8.607h-5.665v5.913h5.665v17.751h5.887V94.76h3.711zm11.982 11.838l14.3-11.838v-5.913h-18.949l-2.618 5.913h12.307l-14.3 11.838v5.913H157v-5.913h-14.313zm-110.271-3.767c0-6.463-3.217-9.68-9.638-9.68H9.924c-2.149 0-3.217-1.073-3.217-3.231 0-2.159 1.068-3.231 3.217-3.231h16.93l2.866-6.463H9.924c-6.434 0-9.637 3.231-9.637 9.68 0 6.45 3.216 9.68 9.637 9.68h12.854c2.15 0 3.217 1.073 3.217 3.231 0 2.159-1.068 3.232-3.217 3.232H0v6.462h22.778c6.434 0 9.638-3.231 9.638-9.68zm12.06 3.767c-1.967 0-2.944-.981-2.944-2.956v-5.913c0-1.975.977-2.956 2.944-2.956h12.229l2.5-5.651v-.262h-14.73c-5.886 0-8.842 2.956-8.842 8.882v5.913c0 5.912 2.943 8.882 8.843 8.882h14.73v-5.913h-14.73v-.026zm59.466-17.751H93.119l-2.618 5.913h13.441c1.966 0 2.943.968 2.943 2.903v.053H96.596c-4.923 0-7.397 2.42-7.397 7.26 0 5.023 2.461 7.535 7.397 7.535h16.176V97.716c0-5.913-2.944-8.882-8.843-8.882l.013.013zm2.943 14.795v2.956h-10.29c-1.002 0-1.497-.497-1.497-1.504 0-1.008.495-1.452 1.497-1.452h10.289zm-13.948 25.155c.156.366.364.641.65.811.287.17.626.287 1.017.327.39.039.898.065 1.537.065.885 0 1.55-.052 2.018-.157.469-.105.82-.353 1.068-.733.248-.379.378-.994.378-1.818v-6.187h-.964v6.161c0 .549-.065.955-.182 1.217-.118.248-.352.418-.678.51-.338.078-.872.131-1.614.131-.743 0-1.277-.04-1.602-.131-.339-.092-.56-.249-.678-.51-.117-.249-.182-.654-.182-1.217v-6.161h-.964v6.187c0 .628.079 1.125.222 1.491l-.026.014zm25.708 1.111v-.889h-4.415v-7.901h-.976v8.79h5.404-.013zm-15.107 0l.703-1.805h4.415l.651 1.805h1.042l-3.256-8.79h-1.406l-3.191 8.79h1.055-.013zm.938-2.668l1.927-5.403 1.941 5.403h-3.868zm32.754 2.668h.977v-3.675l3.308-5.115h-1.107l-2.644 4.199-2.657-4.199h-1.081l3.217 5.115v3.675h-.013zm-15.759-8.777v8.764h.99v-8.764h-.99zm6.538.876v7.901h.977v-7.901h2.839v-.889h-6.681v.889h2.865zm-40.464 7.836c.26-.065.495-.157.703-.275.209-.117.404-.287.586-.51l.651.445.404-.667-.742-.51c.104-.34.17-1.282.17-2.813 0-.968-.053-1.753-.17-2.328-.117-.576-.3-1.021-.573-1.335-.274-.313-.638-.523-1.107-.654-.47-.117-1.094-.183-1.889-.183-.794 0-1.38.066-1.836.183-.456.118-.82.341-1.094.654-.26.314-.456.759-.573 1.348-.117.575-.17 1.347-.17 2.302 0 .955.053 1.727.17 2.302.104.576.3 1.021.573 1.335.273.314.638.536 1.094.667.456.131 1.081.183 1.85.183.43 0 .794 0 1.106-.026.313-.013.586-.066.847-.118zm-3.412-.85c-.339-.092-.6-.262-.782-.51-.182-.249-.3-.602-.364-1.047-.066-.458-.091-1.099-.091-1.923 0-.824.025-1.478.09-1.936.066-.458.183-.811.352-1.059.183-.249.43-.419.782-.511.351-.091.82-.13 1.458-.13s1.12.039 1.472.13c.352.092.612.262.808.498.182.248.312.588.377 1.046.065.458.104 1.099.104 1.936 0 1.334-.013 2.08-.052 2.237l-2.54-1.674-.442.693 2.722 1.779c-.13.17-.3.301-.495.379a2.575 2.575 0 01-.742.17c-.3.026-.69.039-1.212.039-.625 0-1.107-.039-1.445-.143v.026zm-40.426-7.888v8.803h.964v-8.005l3.334 8.005h.847l3.308-8.084v8.084h.963v-8.803h-1.601l-3.113 7.548-3.087-7.548h-1.628.013zm23.156 0v8.79h.964v-7.94l4.936 7.94H74.3v-8.79h-.964v8.032l-4.923-8.032h-1.55zm-36.257 0H24.98v8.79h5.614v-.876h-4.637v-3.192h4.454v-.85h-4.454v-2.996h4.663v-.863l-.013-.013zm-9.286 8.149c.26-.261.456-.641.573-1.112.117-.47.169-1.085.169-1.857v-1.02h-3.79v.85h2.8v.314c0 .719-.065 1.256-.208 1.648a1.387 1.387 0 01-.768.811c-.378.157-.912.249-1.628.249-.534 0-.977-.053-1.303-.144a1.496 1.496 0 01-.781-.523c-.196-.249-.326-.615-.404-1.073-.078-.458-.117-1.086-.117-1.858 0-.771.039-1.399.117-1.87.078-.471.221-.837.404-1.086a1.39 1.39 0 01.781-.536c.326-.105.769-.157 1.316-.157.742 0 1.289.052 1.64.144.352.104.6.274.73.523.13.248.221.628.247 1.138h.951c-.052-.693-.17-1.217-.339-1.583-.169-.366-.508-.628-.99-.811-.494-.183-1.237-.275-2.226-.275-.73 0-1.329.079-1.785.223-.456.157-.82.392-1.08.732-.261.34-.457.798-.56 1.374-.118.575-.17 1.295-.17 2.171 0 .877.052 1.609.156 2.172.104.562.3 1.007.56 1.347.26.34.626.576 1.094.72.47.143 1.068.222 1.798.222.729 0 1.302-.052 1.758-.17.456-.118.82-.301 1.08-.563h-.025zm17.243-2.747c.247.092.43.249.547.484.117.223.182.524.182.903v1.988h.977v-2.224c0-1.059-.456-1.608-1.38-1.674.455-.078.781-.235 1.002-.445.222-.209.352-.457.417-.745.052-.288.091-.667.091-1.125 0-.916-.221-1.57-.625-1.962-.404-.393-1.055-.602-1.927-.602h-4.155v8.79h.964v-3.518h2.97c.377 0 .69.052.937.143v-.013zm-3.907-.981v-3.558h3.19c.365 0 .665.066.9.196.234.131.403.341.507.615.104.275.157.641.157 1.086 0 .445-.066.785-.196 1.033a1.03 1.03 0 01-.599.497c-.273.092-.638.131-1.107.131h-2.865.013zm24.64-4.434l-3.19 8.79h1.055l.703-1.805h4.415l.651 1.805h1.042l-3.256-8.79h-1.42zm2.67 6.122H58.1l1.927-5.403 1.94 5.403z" fill="url(#paint0_linear_1110_2535)"/><defs><linearGradient id="paint0_linear_1110_2535" x1="78.493" y1="0" x2="78.493" y2="130.039" gradientUnits="userSpaceOnUse"><stop stop-color="#888A8D"/><stop offset=".14" stop-color="#ACADAF"/><stop offset=".46" stop-color="#fff"/><stop offset=".57" stop-color="#BCBCBC"/><stop offset=".65" stop-color="#929292"/><stop offset=".69" stop-color="#828282"/><stop offset=".72" stop-color="#7E7E7E"/><stop offset=".75" stop-color="#737373"/><stop offset=".78" stop-color="#606060"/><stop offset=".8" stop-color="#464646"/><stop offset=".82" stop-color="#363636"/><stop offset=".83" stop-color="#393939"/><stop offset=".85" stop-color="#444"/><stop offset=".87" stop-color="#575757"/><stop offset=".88" stop-color="#717171"/><stop offset=".89" stop-color="#828282"/></linearGradient></defs></svg>
